X:1
T:I Am Coming to the Cross
T:I Am Coming to the Cross
T:William Gustavus Fischer
T:William McDonald, 1870
T:Public Domain Courtesy of the Cyber Hymnal™
C:William Gustavus Fischer
Z:Public Domain
Z:Courtesy of the Cyber Hymnal™
%%score ( 1 2 ) ( 3 4 )
L:1/8
Q:1/4=103
M:3/4
K:G
V:1 treble 
V:2 treble 
V:3 bass 
V:4 bass 
V:1
 D[DG] | [GB]3 G [FA]>[FB] | G4 [GB][Gc] | [Gd]3 [Ge] [Gd]>[GB] | [FA]4 [DG][DA] | %5
w: 1.~I am|com- ing to the|cross; I am|poor and weak and|blind; I am|
w: 2.~Long my|heart has sighed for|Thee; Long has|e- vil reigned with-|in; Je- sus|
w: 3.~Here I|give my all to|Thee: Friends and|time and earth- ly|store; Soul and|
w: 4.~In the|prom- is- es I|trust; Now I|feel the blood ap-|plied; I am|
w: 5.~Je- sus|comes! He fills my|soul! Per- fect-|ed in Him I|am; I am|
 [GB]3 [DG] [FA]>[DB] | [DG]4 [CE][CE] | [B,D]3 [DG] [DB]>[DA] | [DG]4 ||"^Refrain" D[DG] | %10
w: count- ing all but|dross; I shall|full sal- va- tion|find.||
w: sweet- ly speaks to|me: “I will|cleanse you from all|sin.”||
w: bo- dy Thine to|be, Whol- ly|Thine for- ev- er-|more.||
w: pros- trate in the|dust; I with|Christ am cru- ci-|fied.||
w: ev- ery whit made|whole: Glo- ry,|glo- ry to the|Lamb!||
 [GB]3 G [FA]>[FB] | G4 [GB][Gc] | [Gd]3 [Ge] [Gd]>[GB] | [FA]4 [DG][DA] | [GB]3 [DG] [FA]>[DB] | %15
w: |||||
w: |||||
w: |||||
w: |||||
w: |||||
 [DG]4 [CE][CE] | [B,D]3 [DG] [DB]>[DA] | [DG]4 |] %18
w: |||
w: |||
w: |||
w: |||
w: |||
V:2
 D x | x6 | G4 x2 | x6 | x6 | x6 | x6 | x6 | x4 || D x | x6 | x6 | x6 | x6 | x6 | x6 | x6 | x4 |] %18
V:3
 [G,B,][G,B,] | [G,D]3 [G,B,] [D,C]>[D,D] | [G,B,]4 G,[G,A,] | [G,B,]3 [G,C] [G,B,]>[G,D] | %4
w: ~ ~|~ ~ ~ ~|~ ~ ~|~ ~ ~ ~|
 [D,D]4 [G,B,][G,C] | [G,D]3 [G,B,] [D,C]>[D,D] | [G,B,]4 [C,G,][C,G,] | %7
w: ~ ~ ~|~ ~ ~ ~|~ ~ ~|
 [D,G,]3 [D,B,] [D,D]>[D,C] | [G,B,]4 || [G,B,][G,B,] | [G,D]3 [G,B,] [D,C]>[D,D] | %11
w: ~ ~ ~ ~|~|I am|trust- ing, Lord, in|
 [G,B,]4 G,[G,A,] | [G,B,]3 [G,C] [G,B,]>[G,D] | [D,D]4 [G,B,][G,C] | [G,D]3 [G,B,] [D,C]>[D,D] | %15
w: Thee. Bless- èd|Lamb of Cal- va-|ry; Hum- bly|at Thy cross I|
 [G,B,]4 [C,G,][C,G,] | [D,G,]3 [D,B,] [D,D]>[D,C] | [G,B,]4 |] %18
w: bow. Save me,|Je- sus, save me|now.|
V:4
 x2 | x6 | x4 G, x | x6 | x6 | x6 | x6 | x6 | x4 || x2 | x6 | x4 G, x | x6 | x6 | x6 | x6 | x6 | %17
 x4 |] %18

